public/images/icon-plate--leaf.svg

<svg width="30" height="23" viewBox="0 0 30 23" fill="none" xmlns="http://www.w3.org/2000/svg">
<path d="M2.625 0V6.375H3.375L4.125 0H4.875L5.625 6.375H6.375V0H7.125L9 6.375C9 8.34375 7.5 9.9375 5.625 10.125V22.5H3.375V10.125C1.5 9.9375 0 8.34375 0 6.375L1.875 0H2.625ZM30 0V22.5H27.75V14.25H24V6.75C24 0.75 30 0 30 0ZM15.75 0.75C18.2812 0.75 20.625 1.64062 22.4531 3.14062C22.0312 4.17188 21.75 5.34375 21.75 6.75C20.3906 4.92188 18.1875 3.75 15.75 3.75C13.9688 3.75 12.3281 4.35938 11.0625 5.39062L10.1719 2.34375C11.7656 1.35938 13.6875 0.75 15.75 0.75ZM15.75 18.75C18.1875 18.75 20.3906 17.5781 21.75 15.75V16.5H24.8438C23.0156 19.6406 19.6406 21.75 15.75 21.75C12.6094 21.75 9.79688 20.3906 7.875 18.1875V11.7656C8.01562 11.7188 8.10938 11.625 8.25 11.5781C8.4375 15.5625 11.7188 18.75 15.75 18.75ZM21 11.25C21 14.1562 18.6562 16.5 15.75 16.5C12.8438 16.5 10.5 14.1562 10.5 11.25C10.5 8.34375 12.8438 6 15.75 6C18.6562 6 21 8.34375 21 11.25Z" fill="#91C15D"/>
</svg>

<svg width="30" height="23" viewBox="0 0 30 23" fill="none" xmlns="http://www.w3.org/2000/svg"><path d="M2.625 0v6.375h.75L4.125 0h.75l.75 6.375h.75V0h.75L9 6.375c0 1.969-1.5 3.563-3.375 3.75V22.5h-2.25V10.125A3.766 3.766 0 0 1 0 6.375L1.875 0h.75ZM30 0v22.5h-2.25v-8.25H24v-7.5C24 .75 30 0 30 0ZM15.75.75c2.531 0 4.875.89 6.703 2.39a9.338 9.338 0 0 0-.703 3.61 7.48 7.48 0 0 0-6-3 7.4 7.4 0 0 0-4.688 1.64l-.89-3.046A10.63 10.63 0 0 1 15.75.75Zm0 18a7.48 7.48 0 0 0 6-3v.75h3.094c-1.828 3.14-5.203 5.25-9.094 5.25a10.39 10.39 0 0 1-7.875-3.563v-6.421c.14-.047.234-.141.375-.188.188 3.985 3.469 7.172 7.5 7.172Zm5.25-7.5a5.241 5.241 0 0 1-5.25 5.25 5.241 5.241 0 0 1-5.25-5.25A5.241 5.241 0 0 1 15.75 6 5.241 5.241 0 0 1 21 11.25Z" fill="#91C15D"/></svg>
